icons/radio.svg

<svg width="24" height="24" viewBox="0 0 24 24" fill="none" xmlns="http://www.w3.org/2000/svg">
<path fill-rule="evenodd" clip-rule="evenodd" d="M15.6648 3.15303C15.8565 3.52021 15.7142 3.97328 15.347 4.16499L8.67219 7.65009H18.0234L18.0468 7.65155C19.8716 7.7656 21.75 9.05337 21.75 11.0001V17.9001C21.75 19.7987 20.0244 21.2501 18 21.2501H6C3.9756 21.2501 2.25 19.7987 2.25 17.9001V11.0001C2.25 9.31582 3.60791 7.98354 5.32774 7.70415L14.6528 2.83532C15.02 2.64361 15.473 2.78585 15.6648 3.15303ZM5.78407 9.15804L4.0761 10.0498C3.8646 10.3413 3.75 10.6738 3.75 11.0001V17.9001C3.75 18.8014 4.6244 19.7501 6 19.7501H18C19.3756 19.7501 20.25 18.8014 20.25 17.9001V11.0001C20.25 10.1514 19.3383 9.2444 17.9754 9.15009H6C5.92658 9.15009 5.85458 9.15279 5.78407 9.15804ZM6.75 14.5002C6.75 13.2575 7.75736 12.2502 9 12.2502C10.2426 12.2502 11.25 13.2575 11.25 14.5002C11.25 15.7428 10.2426 16.7502 9 16.7502C7.75736 16.7502 6.75 15.7428 6.75 14.5002ZM9 10.7502C6.92893 10.7502 5.25 12.4291 5.25 14.5002C5.25 16.5713 6.92893 18.2502 9 18.2502C11.0711 18.2502 12.75 16.5713 12.75 14.5002C12.75 12.4291 11.0711 10.7502 9 10.7502Z" fill="black"/>
</svg>

<svg xmlns="http://www.w3.org/2000/svg" fill="none" viewBox="0 0 24 24">
  <path fill="#000" fill-rule="evenodd" d="M15.665 3.153a.75.75 0 0 1-.318 1.012L8.672 7.65h9.351l.024.002c1.825.114 3.703 1.401 3.703 3.348v6.9c0 1.899-1.726 3.35-3.75 3.35H6c-2.024 0-3.75-1.451-3.75-3.35V11c0-1.684 1.358-3.016 3.078-3.296l9.325-4.869a.75.75 0 0 1 1.012.318Zm-9.88 6.005-1.709.892a1.63 1.63 0 0 0-.326.95v6.9c0 .901.874 1.85 2.25 1.85h12c1.376 0 2.25-.949 2.25-1.85V11c0-.849-.912-1.756-2.275-1.85H6c-.073 0-.145.003-.216.008ZM6.75 14.5a2.25 2.25 0 1 1 4.5 0 2.25 2.25 0 0 1-4.5 0ZM9 10.75a3.75 3.75 0 1 0 0 7.5 3.75 3.75 0 0 0 0-7.5Z" clip-rule="evenodd"/>
</svg>
